X:0241
M:2/4
L:1/16
Q:1/4=104
K:G
    B2d2d2e2        |d2B2A2G2   |(Bc)d2 efge|d4 G2 :|
ef|(gfed)   (edcB)  |c2B2 A2(ef)| gfed  BcdB|g4 d2ef|\
   (gf)(ed) (ed)(cB)|g2B2A2c2   | Bcd2  efge|d4 G2 :|

